build/svg/cmd/sc_autooutline.svg

<?xml version="1.0" encoding="UTF-8" standalone="no"?>
<svg
   xmlns:dc="http://purl.org/dc/elements/1.1/"
   xmlns:cc="http://creativecommons.org/ns#"
   xmlns:rdf="http://www.w3.org/1999/02/22-rdf-syntax-ns#"
   xmlns:svg="http://www.w3.org/2000/svg"
   xmlns="http://www.w3.org/2000/svg"
   xmlns:sodipodi="http://sodipodi.sourceforge.net/DTD/sodipodi-0.dtd"
   xmlns:inkscape="http://www.inkscape.org/namespaces/inkscape"
   viewBox="0 0 16 16"
   version="1.1"
   id="svg6"
   sodipodi:docname="sc_autooutline.svg"
   inkscape:export-filename="/home/jupiter007/Libreoffice yaru theme fullcolor/build/cmd/sc_autooutline.png"
   inkscape:export-xdpi="96"
   inkscape:export-ydpi="96"
   inkscape:version="0.92.5 (2060ec1f9f, 2020-04-08)">
  <metadata
     id="metadata12">
    <rdf:RDF>
      <cc:Work
         rdf:about="">
        <dc:format>image/svg+xml</dc:format>
        <dc:type
           rdf:resource="http://purl.org/dc/dcmitype/StillImage" />
      </cc:Work>
    </rdf:RDF>
  </metadata>
  <defs
     id="defs10" />
  <sodipodi:namedview
     pagecolor="#ffffff"
     bordercolor="#666666"
     borderopacity="1"
     objecttolerance="10"
     gridtolerance="10"
     guidetolerance="10"
     inkscape:pageopacity="0"
     inkscape:pageshadow="2"
     inkscape:window-width="1920"
     inkscape:window-height="1011"
     id="namedview8"
     showgrid="true"
     inkscape:zoom="20.85965"
     inkscape:cx="4.1638968"
     inkscape:cy="6.0341404"
     inkscape:window-x="0"
     inkscape:window-y="32"
     inkscape:window-maximized="1"
     inkscape:current-layer="svg6">
    <inkscape:grid
       type="xygrid"
       id="grid822" />
  </sodipodi:namedview>
  <path
     style="opacity:0.6;fill:#000000;fill-opacity:1;stroke:#000000;stroke-width:2;stroke-linejoin:round;stroke-miterlimit:4;stroke-dasharray:none;stroke-opacity:1"
     d="M 9 2 L 9 5 L 14 5 L 14 2 L 9 2 z M 9 6 L 9 9 L 14 9 L 14 6 L 9 6 z M 9 10 L 9 13 L 14 13 L 14 10 L 9 10 z "
     id="rect830" />
  <rect
     style="opacity:1;fill:#ffffff;fill-opacity:1;stroke:none;stroke-width:2;stroke-linejoin:round;stroke-miterlimit:4;stroke-dasharray:none;stroke-opacity:1"
     id="rect824"
     width="5"
     height="3"
     x="9"
     y="2" />
  <rect
     y="6"
     x="9"
     height="3"
     width="5"
     id="rect826"
     style="opacity:1;fill:#ffffff;fill-opacity:1;stroke:none;stroke-width:2;stroke-linejoin:round;stroke-miterlimit:4;stroke-dasharray:none;stroke-opacity:1" />
  <rect
     style="opacity:1;fill:#ffffff;fill-opacity:1;stroke:none;stroke-width:2;stroke-linejoin:round;stroke-miterlimit:4;stroke-dasharray:none;stroke-opacity:1"
     id="rect828"
     width="5"
     height="3"
     x="9"
     y="10" />
  <path
     d="M 9.125,4 0,13.125 2.875001,16 12,6.875 Z"
     id="path819"
     inkscape:connector-curvature="0"
     style="opacity:0.6;fill:#000000;stroke:none" />
  <path
     d="M 9.125,5.4375 10.5625,6.875 7.781251,9.65625 6.343751,8.21875 Z"
     id="path2-8"
     style="fill:#ffffff"
     inkscape:connector-curvature="0" />
  <rect
     style="opacity:1;fill:#fa9381;fill-opacity:1;stroke:none;stroke-width:2;stroke-linecap:round;stroke-linejoin:round;stroke-miterlimit:4;stroke-dasharray:none;stroke-opacity:1"
     id="rect825"
     width="6"
     height="2"
     x="-8.2807751"
     y="10.280776"
     transform="rotate(-45)" />
</svg>

<svg xmlns="http://www.w3.org/2000/svg" viewBox="0 0 16 16"><path d="M9 2v3h5V2H9zm0 4v3h5V6H9zm0 4v3h5v-3H9z" opacity=".6" stroke="#000" stroke-width="2" stroke-linejoin="round"/><path fill="#fff" d="M9 2h5v3H9zM9 6h5v3H9zM9 10h5v3H9z"/><path d="M9.125 4L0 13.125 2.875 16 12 6.875z" opacity=".6"/><path d="M9.125 5.438l1.438 1.437L7.78 9.656 6.344 8.22z" fill="#fff"/><path fill="#fa9381" d="M1.414 13.125l4.243-4.242 1.414 1.414-4.243 4.243z"/></svg>
